X: 7418
T: Cloonagroe, The
R: reel
M: 4/4
K: Adorian
aag|e2dB GABd|e2ed eaag|e2dB GFGA|BcBA GEEg|
e2dB GABd|e2ed eaag|e2dB DEGA|BcBA GEE2|
e3f g2eg|a2ba gedg|edef g2ea|aged BG (3Bcd|
edef g2eg|a2ba ged(g|g)abg agea|gedB Aaag|

